svgs/duotone/stomach.svg

<svg xmlns="http://www.w3.org/2000/svg" viewBox="0 0 512 512"><!-- Font Awesome Pro 6.0.0-alpha2 by @fontawesome - https://fontawesome.com License - https://fontawesome.com/license (Commercial License) --><defs><style>.fa-secondary{opacity:.4}</style></defs><path d="M273.131 160H256C220.654 160 192 131.346 192 96V16C192 7.164 184.836 0 176 0H144C135.164 0 128 7.164 128 16V96C128 166.693 185.307 224 256 224C255.967 201.529 261.877 179.449 273.131 160ZM384 320C366.73 302.73 341.381 297.939 318.789 305.939C311.66 358.189 274.131 392.34 241.6 406.02C234.918 408.764 231.723 416.404 234.467 423.088C235.576 425.791 237.559 428.045 240.1 429.49C249.191 434.723 258.824 438.951 268.83 442.1C312.199 455.689 367.09 446.689 406.529 407.689C426.359 387.977 439.83 362.777 445.211 335.34C423.67 341.369 400.25 336.25 384 320Z" class="fa-secondary"/><path d="M384 96C366.67 96 307.85 100 273.131 160C264.039 175.732 258.412 193.227 256.631 211.311C256.07 217 256 222.1 256 224V288C256 323.346 227.346 352 192 352H128C57.307 352 0 409.307 0 480V496C0 504.836 7.164 512 16 512H48C56.836 512 64 504.836 64 496V480C64 442.369 98 428.789 117.92 428.789C135.029 428.789 147.51 435.5 158.99 446.99C222.061 510.061 288.83 511.99 305.699 511.99H308.359C420.84 512 512 420.83 512 308.35V224C512 153.307 454.693 96 384 96ZM448 307C448 344.73 433.35 381.199 406.52 407.721C367.08 446.721 312.189 455.721 268.82 442.131C258.814 438.98 249.182 434.752 240.09 429.52C233.797 425.975 231.568 417.998 235.113 411.705C236.566 409.123 238.854 407.111 241.6 406C277.711 390.811 320 350.4 320 288V224C320.83 202.141 340.15 160 384 160C419.33 160.039 447.961 188.67 448 224V307Z" class="fa-primary"/></svg>

<svg xmlns="http://www.w3.org/2000/svg" viewBox="0 0 512 512"><!-- Font Awesome Pro 5.15.1 by @fontawesome - https://fontawesome.com License - https://fontawesome.com/license (Commercial License) --><defs><style>.fa-secondary{opacity:.4}</style></defs><path d="M384 320c-17.27-17.27-42.62-22.06-65.21-14.06-7.13 52.25-44.66 86.4-77.19 100.08a13.08 13.08 0 0 0-1.5 23.47 144.7 144.7 0 0 0 28.73 12.61c43.37 13.59 98.26 4.59 137.7-34.41a140 140 0 0 0 38.68-72.35c-21.54 6.03-44.96.91-61.21-15.34zM273.13 160H256a64 64 0 0 1-64-64V16a16 16 0 0 0-16-16h-32a16 16 0 0 0-16 16v80a128 128 0 0 0 128 128 127.42 127.42 0 0 1 17.13-64z" class="fa-secondary"/><path d="M384 96c-17.33 0-76.15 4-110.87 64a127.56 127.56 0 0 0-16.5 51.31C256.07 217 256 222.1 256 224v64a64 64 0 0 1-64 64h-64A128 128 0 0 0 0 480v16a16 16 0 0 0 16 16h32a16 16 0 0 0 16-16v-16c0-37.63 34-51.21 53.92-51.21 17.11 0 29.59 6.71 41.07 18.2 63.07 63.07 129.84 65 146.71 65h2.66C420.84 512 512 420.83 512 308.35V224A128 128 0 0 0 384 96zm64 211c0 37.73-14.65 74.2-41.48 100.72-39.44 39-94.33 48-137.7 34.41a144.7 144.7 0 0 1-28.73-12.61A13.08 13.08 0 0 1 241.6 406c36.11-15.19 78.4-55.6 78.4-118v-64c.83-21.86 20.15-64 64-64a64.07 64.07 0 0 1 64 64z" class="fa-primary"/></svg>
